svg/fluentui-system-icons/ic_fluent_chat_multiple_heart_28_filled.svg

<svg width="28" height="28" viewBox="0 0 28 28" fill="none" xmlns="http://www.w3.org/2000/svg">
<path d="M2 12C2 7.02944 6.02944 3 11 3C15.9706 3 20 7.02944 20 12C20 16.9706 15.9706 21 11 21C9.54884 21 8.17608 20.656 6.96065 20.0446L3.57493 20.9518C2.64547 21.2009 1.79495 20.3504 2.044 19.4209L2.95192 16.0325C2.3427 14.8187 2 13.4484 2 12ZM6.78826 8.79619C5.73306 9.862 5.73821 11.5938 6.79799 12.6642L10.7211 16.6267C10.8838 16.7911 11.1476 16.7911 11.3103 16.6267L15.213 12.6871C16.2657 11.6179 16.2624 9.89093 15.2024 8.8203C14.1408 7.74794 12.4254 7.74274 11.3684 8.81046L10.9956 9.18767L10.6178 8.80602C9.55799 7.73558 7.84346 7.73038 6.78826 8.79619ZM10.2681 21.9736C11.9167 23.8302 14.3217 25.0001 17 25.0001C18.4511 25.0001 19.8239 24.6561 21.0393 24.0447L24.425 24.9519C25.3545 25.201 26.205 24.3504 25.956 23.421L25.048 20.0326C25.6573 18.8188 26 17.4485 26 16.0001C26 12.0537 23.46 8.70063 19.9257 7.48633C20.2416 8.10965 20.494 8.77052 20.6746 9.46046C22.9579 10.7462 24.5 13.193 24.5 16.0001C24.5 17.3001 24.1698 18.5208 23.5894 19.5851C23.4972 19.7542 23.4736 19.9522 23.5235 20.1383L24.395 23.3909L21.1447 22.52C20.9584 22.4701 20.7601 22.4939 20.5909 22.5863C19.5252 23.1687 18.3024 23.5001 17 23.5001C15.2558 23.5001 13.6507 22.9047 12.3768 21.9061C11.9267 21.9681 11.4671 22.0001 11 22.0001C10.7539 22.0001 10.5098 21.9912 10.2681 21.9736Z" fill="#212121"/>
</svg>

<svg xmlns="http://www.w3.org/2000/svg" width="28" height="28"><path d="M2 12a9 9 0 1 1 4.96 8.045l-3.385.907a1.25 1.25 0 0 1-1.531-1.531l.908-3.389A8.966 8.966 0 0 1 2 12Zm4.788-3.204a2.755 2.755 0 0 0 .01 3.868l3.923 3.963a.414.414 0 0 0 .59 0l3.902-3.94a2.755 2.755 0 0 0-.01-3.867 2.69 2.69 0 0 0-3.835-.01l-.372.378-.378-.382a2.689 2.689 0 0 0-3.83-.01Zm3.48 13.178A8.978 8.978 0 0 0 17 25a8.965 8.965 0 0 0 4.04-.955l3.385.907a1.25 1.25 0 0 0 1.531-1.531l-.908-3.388a9.004 9.004 0 0 0-5.122-12.546 9.95 9.95 0 0 1 .749 1.973A7.498 7.498 0 0 1 24.5 16c0 1.3-.33 2.52-.91 3.585a.75.75 0 0 0-.067.553l.872 3.253-3.25-.871a.75.75 0 0 0-.554.066A7.463 7.463 0 0 1 17 23.5a7.468 7.468 0 0 1-4.623-1.594 10.085 10.085 0 0 1-2.109.068Z"/></svg>
